build/img/icon-project--react.svg

<svg width="28" height="29" viewBox="0 0 28 29" fill="none" xmlns="http://www.w3.org/2000/svg">
<rect y="0.255005" width="28" height="28" rx="2" fill="#86E1F9"/>
<g clip-path="url(#clip0_33_123)">
<path d="M14 15.5326C13.6611 15.5326 13.3362 15.398 13.0966 15.1584C12.857 14.9188 12.7224 14.5939 12.7224 14.255C12.7224 13.9162 12.857 13.5912 13.0966 13.3516C13.3362 13.112 13.6611 12.9774 14 12.9774C14.3388 12.9774 14.6638 13.112 14.9034 13.3516C15.143 13.5912 15.2776 13.9162 15.2776 14.255C15.2776 14.5939 15.143 14.9188 14.9034 15.1584C14.6638 15.398 14.3388 15.5326 14 15.5326ZM13.5503 18.0827C13.6993 18.2616 13.8492 18.4353 14 18.6014C14.1507 18.4353 14.3006 18.2624 14.4497 18.0827C14.1499 18.0891 13.85 18.0891 13.5503 18.0827ZM11.851 17.9763C11.1969 17.9082 10.5472 17.8036 9.90481 17.6628C9.84092 17.9609 9.79238 18.2505 9.76001 18.5282C9.59818 19.8765 9.82389 20.6959 10.1671 20.8935C10.5104 21.0919 11.3323 20.8773 12.42 20.0639C12.644 19.8961 12.8697 19.7096 13.0963 19.506C12.6529 19.0197 12.2372 18.509 11.851 17.9763ZM18.0951 17.6628C17.4844 17.7991 16.832 17.9047 16.1489 17.9763C15.7627 18.509 15.347 19.0197 14.9037 19.506C15.1302 19.7104 15.3559 19.8961 15.5799 20.0639C16.6676 20.8773 17.4895 21.0919 17.8328 20.8935C18.1761 20.6959 18.4009 19.8765 18.2408 18.5282C18.2056 18.2377 18.1573 17.9489 18.096 17.6628H18.0951ZM19.3302 17.3332C19.8216 19.5809 19.5635 21.3704 18.4716 22.0007C17.3797 22.631 15.7009 21.9598 14 20.4105C12.299 21.9598 10.6203 22.6302 9.52834 21.9999C8.43641 21.3696 8.17833 19.5809 8.66893 17.3323C6.47655 16.6348 5.0567 15.5156 5.0567 14.255C5.0567 12.9944 6.47655 11.8761 8.66893 11.1768C8.17833 8.92908 8.43641 7.13957 9.52834 6.50929C10.6203 5.879 12.299 6.55017 14 8.09948C15.7009 6.55017 17.3797 5.87985 18.4716 6.51014C19.5635 7.14042 19.8216 8.92908 19.331 11.1777C21.5234 11.8752 22.9432 12.9944 22.9432 14.255C22.9432 15.5156 21.5234 16.6339 19.331 17.3332H19.3302ZM13.0954 9.00403C12.8788 8.80797 12.6534 8.62181 12.42 8.44614C11.3323 7.63273 10.5104 7.41809 10.1671 7.61655C9.82389 7.81415 9.59903 8.63352 9.75916 9.98183C9.79323 10.2603 9.84092 10.5491 9.90395 10.8472C10.5466 10.7064 11.1967 10.6018 11.851 10.5338C12.2556 9.97757 12.673 9.46568 13.0963 9.00403H13.0954ZM16.1489 10.5338C16.832 10.6053 17.4844 10.7118 18.0951 10.8472C18.159 10.5491 18.2076 10.2595 18.2399 9.98183C18.4018 8.63352 18.1761 7.81415 17.8328 7.61655C17.4895 7.41809 16.6676 7.63273 15.5799 8.44614C15.3462 8.62179 15.1205 8.80795 14.9037 9.00403C15.327 9.46568 15.7443 9.97757 16.1489 10.5338ZM14.4497 10.4273C14.3006 10.2484 14.1507 10.0747 14 9.90858C13.8492 10.0747 13.6993 10.2476 13.5503 10.4273C13.85 10.4209 14.1499 10.4209 14.4497 10.4273ZM10.9099 16.5581C10.7545 16.3018 10.6045 16.0423 10.4601 15.7796C10.3792 15.9985 10.3043 16.214 10.2361 16.4278C10.455 16.4755 10.6799 16.5189 10.909 16.5581H10.9099ZM12.5554 16.7574C13.5171 16.8289 14.4828 16.8289 15.4445 16.7574C15.9873 15.9602 16.4701 15.1237 16.8891 14.255C16.4701 13.3863 15.9873 12.5499 15.4445 11.7526C14.4828 11.6812 13.5171 11.6812 12.5554 11.7526C12.0127 12.5499 11.5298 13.3863 11.1109 14.255C11.5298 15.1237 12.0127 15.9602 12.5554 16.7574ZM17.5398 12.7304C17.6207 12.5115 17.6957 12.296 17.7638 12.0822C17.5405 12.0338 17.3162 11.9903 17.0909 11.9519C17.246 12.2082 17.3957 12.4678 17.5398 12.7304ZM9.00026 12.4127C8.71067 12.5064 8.43641 12.6086 8.17918 12.7193C6.93138 13.2542 6.33431 13.859 6.33431 14.255C6.33431 14.6511 6.93053 15.2558 8.17918 15.7907C8.43641 15.9014 8.71067 16.0036 9.00026 16.0973C9.18934 15.5011 9.42357 14.8827 9.70294 14.255C9.43449 13.6545 9.1999 13.0394 9.00026 12.4127ZM10.2353 12.0822C10.3043 12.2952 10.3792 12.5115 10.4601 12.7295C10.6045 12.4672 10.7545 12.2079 10.9099 11.9519C10.6799 11.9911 10.455 12.0345 10.2361 12.0822H10.2353ZM18.9997 16.0973C19.2893 16.0036 19.5635 15.9014 19.8208 15.7907C21.0686 15.2558 21.6656 14.6511 21.6656 14.255C21.6656 13.859 21.0694 13.2542 19.8208 12.7193C19.5518 12.6048 19.2779 12.5024 18.9997 12.4127C18.8106 13.0089 18.5764 13.6273 18.297 14.255C18.5764 14.8827 18.8106 15.5003 18.9997 16.0973ZM17.7647 16.4278C17.6957 16.2149 17.6207 15.9985 17.5398 15.7805C17.3954 16.0428 17.2455 16.3021 17.0901 16.5581C17.3201 16.5189 17.5449 16.4755 17.7638 16.4278H17.7647Z" fill="#011221"/>
</g>
<defs>
<clipPath id="clip0_33_123">
<rect width="20.4418" height="20.4418" fill="white" transform="translate(3.77911 4.03413)"/>
</clipPath>
</defs>
</svg>

<svg width="28" height="29" fill="none" xmlns="http://www.w3.org/2000/svg"><rect y=".255" width="28" height="28" rx="2" fill="#86E1F9"/><g clip-path="url(#clip0_33_123)"><path d="M14 15.533a1.277 1.277 0 110-2.555 1.277 1.277 0 010 2.555zm-.45 2.55c.15.179.3.352.45.518.15-.166.3-.339.45-.518-.3.006-.6.006-.9 0zm-1.699-.107a17.604 17.604 0 01-1.946-.313 9.258 9.258 0 00-.145.865c-.162 1.349.064 2.168.407 2.366.343.198 1.165-.017 2.253-.83a9.87 9.87 0 00.676-.558 17.57 17.57 0 01-1.245-1.53zm6.244-.313c-.61.136-1.263.242-1.946.313a17.64 17.64 0 01-1.245 1.53c.226.204.452.39.676.558 1.088.813 1.91 1.028 2.253.83.343-.198.568-1.017.408-2.366a9.7 9.7 0 00-.145-.865zm1.235-.33c.492 2.248.234 4.037-.858 4.668-1.092.63-2.771-.041-4.472-1.59-1.701 1.549-3.38 2.22-4.472 1.589-1.092-.63-1.35-2.42-.86-4.668-2.191-.697-3.611-1.816-3.611-3.077 0-1.26 1.42-2.379 3.612-3.078-.49-2.248-.233-4.037.86-4.668 1.091-.63 2.77.041 4.471 1.59 1.7-1.549 3.38-2.22 4.472-1.589 1.091.63 1.35 2.42.859 4.668 2.192.697 3.612 1.816 3.612 3.077 0 1.26-1.42 2.379-3.612 3.078zm-6.235-8.329a9.687 9.687 0 00-.675-.558c-1.088-.813-1.91-1.028-2.253-.83-.343.198-.568 1.018-.408 2.366.034.278.082.567.145.865.643-.14 1.293-.245 1.947-.313a17.7 17.7 0 011.245-1.53zm3.054 1.53c.683.071 1.335.178 1.946.313a9.13 9.13 0 00.145-.865c.162-1.348-.064-2.168-.407-2.365-.343-.199-1.165.016-2.253.83-.234.175-.46.361-.676.557.423.462.84.974 1.245 1.53zm-1.7-.107A14.53 14.53 0 0014 9.909c-.15.166-.3.339-.45.518.3-.006.6-.006.9 0zm-3.54 6.131a21.176 21.176 0 01-.449-.778c-.08.219-.156.434-.224.648.219.047.444.09.673.13zm1.646.2c.962.07 1.928.07 2.89 0a19.493 19.493 0 001.444-2.503 19.5 19.5 0 00-1.444-2.502 19.51 19.51 0 00-2.89 0 19.5 19.5 0 00-1.444 2.502c.419.869.902 1.705 1.444 2.502zm4.985-4.028c.08-.219.156-.434.224-.648a15.357 15.357 0 00-.673-.13c.155.256.305.516.449.778zM9 12.413a9.4 9.4 0 00-.82.306c-1.249.535-1.846 1.14-1.846 1.536 0 .396.597 1 1.845 1.536a9.4 9.4 0 00.821.306c.19-.596.424-1.214.703-1.842-.269-.6-.503-1.216-.703-1.842zm1.235-.33c.07.212.144.428.225.646.144-.262.294-.521.45-.777-.23.04-.455.082-.674.13zM19 16.096c.29-.093.564-.196.82-.306 1.249-.535 1.846-1.14 1.846-1.536 0-.396-.597-1-1.845-1.536a9.686 9.686 0 00-.821-.306c-.19.596-.424 1.214-.703 1.842.28.628.514 1.245.703 1.842zm-1.235.33c-.07-.212-.144-.428-.225-.646a21.22 21.22 0 01-.45.777c.23-.04.455-.082.674-.13z" fill="#011221"/></g><defs><clipPath id="clip0_33_123"><path fill="#fff" transform="translate(3.78 4.034)" d="M0 0h20.442v20.442H0z"/></clipPath></defs></svg>
